cps (110/120)

d1 $ degradeBy 0.15 $ stack [
  s "glitch*8" # n (irand 30) # coarse "[1 2 -1 0.75]"
] # gain "[0.8 0.9 0.75]/2"
  # pan "[0.25 0.75 1]/2"
  # room 0.1
  # size 0.1
  # hpf 1200
  # orbit 0

d2 $ degradeBy 0.15 $ every 4 (rev) $ stack [
  s "bd(3,8)",
  (0.5 ~>) $ s "cp",
  s "sn" # speed (scale 1 3 $ tri),
  slow 6 $ s "gcombi*8" # n (run 8) # gain 0.8,
  s "~ bass/2" # coarse "[0.9 -1 -0.5]"
] # orbit 1

d2 silence

d3 $ s "~ bass" |+| coarse "[1 8 2 10 3 12]/2"
