cps (125/120)

d1 $ degradeBy 0.6 $ superimpose (fast 2) $ stack [
  --degradeBy 0.2 $ slow 2 $ s "glitch*8 glitch? glitch?" # n (irand 30) # coarse "<1 1.5 2 0.9>",
  s "sn" # speed "<1 2 0.5>",
  s "~ bass/2" # speed "<0.5 1 0.75>" # gain 1.1,
  slow 3 $ s "gcombi*8" # n (run 8)
] # orbit 0
  # room 0.2
  # size 0.2
  # gain 0.9

d1 silence


d2 $ degradeBy 0.6 $ stack [
  --s "bd(3,8)",
  s "bd:3 bd:3" # gain 1.2,
  every 5 (0.5 <~) $ (0.5 ~>) $ s "cp",
  s "[~ hh]*2" # gain 1.3
] # orbit 1
  # room 0.2
  # size 0.2
  # gain 1.1
  # hpf 600

d3 silence

d3 $ degradeBy 0.8 $ every 5 (# speed "<2 3>") $ off (0.25) (# s "pulse") $ n (off 0.125 (+12) $ off 0.25 (+7) "<f7*2 ef7 c7*2 af7>")
  # s "rash"
  # orbit 2
  # room 0.25
  # size 0.25
  # delay 0.35
  # delaytime 0.35
  # delayfeedback 0.5
  # gain 0.9


















off (0.25) (# s "pulse") $ n (off (0.125) (+12) $ off (0.25) (+7) "c7 af7")






d1 $ every 5 (rev) $ whenmod 8 6 (density 2) $ slow 8 $ every 18 (striate 4) $ s (samples "glitch*32" (run 78))
  # gain 0.9
  # orbit 0
  # cut 1

d2 silence

d2 $ every 8 (rev) $ s "[[gclap:3 gclap:3?] gclap:4?]"
  # gain 0.85
  # orbit 0

d3 $ slow 3 $ s "bass:1"
  # speed "<1 0.9 1.1>"
  # gain 0.9
  # orbit 2

d4 silence

hush

d4 $ every 4 (# speed 2) $ slow 2 $ off (0.25) (# s "pulse") $ n (off 0.125 (+12) $ off 0.25 (+7) "c7 af7")

d4 $ slow 2 $ n (off 0.25 (+7) "c7 af7")
  # s "rash"
  # gain 0.6
  # room 0.2
  # size 0.2
  # delay 0.2
  # orbit 0
