cps (130/120)

d6 $ jux (rev) $ s "moog"
  # speed "<3 4 5 2>" -- <8 2>" "<3 4 5 8 2>"
  # release "64"
  # gain 0.2
  # attack 0.8
  # delay 0.25
  # delayfeedback 0.5
  # delaytime 0.5
  # room 0.2
  # size 0.2
  # hcutoff (slow 64 $ scale 1000 250  sine)    -- (slow 64 $ scale 1000 250  sine)  -- (slow 16 sine1 + 1000)  --jugar desde 900 hasta 300*
  # orbit 0

hush
-- polirritmia!
d1 silence
d1 $ loopAt 3 $ sound "breaks125" # gain 0.9 # orbit 2
d4 $ s "cp" # n 2 # gain 0.9 # orbit 2
d2 $ s "bd*2" # n 4 # gain 1.1 #  orbit 2 -- # n 4
d3 $ s "hh*8" # pan "0.7" # gain 1.1 # orbit 2
d5 $ loopAt "<1 2 3>" $ sound "fm:14" # release "8" # orbit 1

-- jux (rev) $
d1 $ sound (samples "arpy*8" (run "<12 12 12 12 13 13>")) -- run "12" "<8 2 4 6 12>" 12 12 12 13 13 13
  # speed "0.25"
  # cut 1
  # room 0.2
  # size 0.2
  # gain 1
  # orbit 2


  -- # hcutoff (slow 16 $ scale 200 600 sine)


do
  d4 silence
  d2 silence


d2 silence

# gain 0.75 # delay 0.25 # delayfeedback 0.15 # delaytime 0.2 # room 0.15 # size 0.1 # orbit 1
d5 $ someCycles(loopAt "2") $ loopAt "3" $ chop 1 $ sound "fm:14" # cut 1 # gain 0.75 # delay 0.25 # delayfeedback 0.15 # delaytime 0.2 # room 0.15 # size 0.1 # orbit 1
d1 silence

hush


d1 $ spaceOut [1,1/2,1/3,1/4,1/5,1/6,1/7,1/8,1/9,1/10,1/11,1/13,1/13,1/15,1/16,1/17,1/18,1/19,1/20] $ s "moog"





solo $ d3 $ s "bass2" # speed "1 2"

solo $ d4 $ s "arpy"

-- nice
d5 $ juxBy 0.6 (|*| speed 2)
  $ sound "[bd sd hh cp mt arpy? drum odx bd arpy bass2? feel future]/2"
  # room "0.15 0.25"
  # size 0.1
  # delay "0.1 0.05"
  # delayfeedback 0.15
  # delaytime 0.2
  # orbit 2

d5 silence

d1 $ sound "arpy(3,8)" # n "2 3 5 8"
d1 $ sound "arpy(3,8)" # n (every 4 (* 2) "0 2")

d1 $ n "[0..7] [3..1]" # sound "supergong"

d1 $ s "arpy*8" # up (run 8)
d1 $ sound "arpy*8" # speed (run 8)
d1 $ sound "arpy*7" # speed (scale 1 3 $ tri)

d2 $ n (off 0.125 (+12) $ off 0.25 (+7) $ slow 2 $ "0(3,8) [5 7]") # sound "supergong"

d1 $ sound "arpy" # speed "[1, 1.5]"

solo $ d1 $ sound "{bd hh cp hh, arpy bass2*2 drum notes can}"
d1 $ sound "{arpy bass2 drum notes can, bd hh sn cp}"

hush
-- nice
d1 $ s "bd*2" # n 1

d3 $ s "[~ hh]*2"
  # pan 0.8
  # gain 1.3
  # room 0.125
  # size 0.2
  # orbit 1

d4 $ s "sn:3"
  # room 0.1
  # size 0.1
  # gain 1
  # delay 0.25
  # delayfeedback 0.125
  # delaytime 0.122
  # orbit 3

d2 silence

do
  d1 $ s "bd*2" # n 3
  d2 $ sound (samples "arpy*8" (run "8"))
    # speed "0.25"
    # cut 1
    # room 0.2
    # size 0.2
    # orbit 2

do
  d1 silence
  d4 silence
  d2 $ sound (samples "bass2*8" (run 8)) # speed "0.6" # cut 1 # gain 0.8 # orbit 1

hush
